assets/Q_diamonds.svg

<svg width="822" height="1138" fill="none" xmlns="http://www.w3.org/2000/svg"><rect y="16" width="822" height="1122" rx="50" fill="#F1F7EE"/><path d="m246.151 1104.1-2.4.1c-9.266 0-16.433-2.9-21.5-8.7-5-5.87-7.5-14.43-7.5-25.7 0-5.4.667-10.23 2-14.5 1.4-4.33 3.134-7.83 5.2-10.5a28.198 28.198 0 0 1 7.5-6.6c5.067-3.2 10.534-4.8 16.4-4.8 2.467 0 4.834.2 7.1.6 2.267.4 4.834 1.3 7.7 2.7 2.867 1.4 5.3 3.27 7.3 5.6 2.067 2.27 3.8 5.53 5.2 9.8 1.467 4.27 2.2 9.23 2.2 14.9 0 8.4-1.5 15.43-4.5 21.1-3 5.6-7.1 9.8-12.3 12.6 1.267 4.6 4.3 8.97 9.1 13.1.734.6.8 1.3.2 2.1l-2.3 2.8c-.333.4-.7.6-1.1.6-.333 0-.7-.1-1.1-.3-8.8-4.53-14.533-9.5-17.2-14.9Zm-1.2-9.3c11.934 0 17.9-8.77 17.9-26.3s-6.066-26.3-18.2-26.3c-4.266 0-7.8 1.17-10.6 3.5-2.733 2.33-4.633 5.23-5.7 8.7-1.066 3.4-1.6 7.37-1.6 11.9 0 19 6.067 28.5 18.2 28.5Zm85.738.3h4.4c1 0 1.5.5 1.5 1.5v4.9c0 1-.5 1.5-1.5 1.5h-11.2c-.8 0-1.3-.5-1.5-1.5l-.9-5.6c-4.266 5.53-9.866 8.3-16.8 8.3-10.8 0-16.2-5.67-16.2-17v-25.5h-5.3c-1 0-1.5-.5-1.5-1.5v-5.2c0-1 .5-1.5 1.5-1.5h15c1 0 1.5.5 1.5 1.5v29.2c0 4 .5 6.87 1.5 8.6 1.067 1.67 3.267 2.5 6.6 2.5 3.4 0 6.2-1 8.4-3s3.3-4.27 3.3-6.8v-23.8h-6.3c-1 0-1.5-.5-1.5-1.5v-5.2c0-1 .5-1.5 1.5-1.5h16c1 0 1.5.5 1.5 1.5v40.1Zm35.364 9.1c-7.934 0-13.767-2.3-17.5-6.9-3.667-4.67-5.5-10.8-5.5-18.4 0-7.67 1.966-14 5.9-19 3.933-5 9.6-7.5 17-7.5 3.666 0 6.8.7 9.4 2.1 2.666 1.33 4.7 3.17 6.1 5.5 2.666 4.53 4 9.77 4 15.7 0 2.8-.134 4.33-.4 4.6-.267.27-.767.4-1.5.4h-29.4c.333 4.8 1.5 8.53 3.5 11.2 2.066 2.6 5.6 3.9 10.6 3.9 3.666 0 7.433-.87 11.3-2.6.933-.47 1.6-.2 2 .8l1.9 4.6c.333.8.033 1.47-.9 2-4.4 2.4-9.9 3.6-16.5 3.6Zm-11.9-30.9h20.8c.133-8.33-3.134-12.5-9.8-12.5-3.934 0-6.734 1.27-8.4 3.8-1.6 2.47-2.467 5.37-2.6 8.7Zm38.949-5.5c0-4.4 1.7-8.07 5.1-11 3.4-2.93 7.7-4.4 12.9-4.4s9.7.6 13.5 1.8c.933.27 1.4.87 1.4 1.8v10.6c0 1-.5 1.5-1.5 1.5h-5.8c-1.067 0-1.5-.5-1.3-1.5l.5-5.1c-2-1.07-4.2-1.6-6.6-1.6-5.333 0-8 1.87-8 5.6 0 1.93.867 3.47 2.6 4.6 1.733 1.13 3.833 2.07 6.3 2.8a81.61 81.61 0 0 1 7.4 2.4c2.533.87 4.667 2.4 6.4 4.6 1.733 2.13 2.6 4.87 2.6 8.2 0 5.07-1.767 9.03-5.3 11.9-3.533 2.8-8.5 4.2-14.9 4.2-4.467 0-9.167-.67-14.1-2-.867-.27-1.3-.9-1.3-1.9v-10.6c0-1 .5-1.5 1.5-1.5h5.8c1 0 1.467.5 1.4 1.5l-.3 5.2c1.8 1.33 4.367 2 7.7 2 5.933 0 8.9-2.1 8.9-6.3 0-2.13-.867-3.8-2.6-5-1.667-1.27-3.733-2.23-6.2-2.9a184.3 184.3 0 0 1-7.3-2.2c-2.467-.87-4.567-2.33-6.3-4.4-1.667-2.13-2.5-4.9-2.5-8.3Zm57.464-6.1v25.2c0 3.13.4 5.4 1.2 6.8.8 1.4 2.3 2.1 4.5 2.1s4.333-.47 6.4-1.4c.733-.27 1.267 0 1.6.8l1.8 4.6c.067.2.1.5.1.9 0 .33-.333.7-1 1.1-3.2 1.6-7 2.4-11.4 2.4-5.933 0-9.833-1.53-11.7-4.6-1.333-2-2.1-3.93-2.3-5.8-.267-2.53-.4-5.2-.4-8v-24.1h-5.7c-1 0-1.5-.5-1.5-1.5v-5.2c0-1 .5-1.5 1.5-1.5h5.7V1040c0-1 .5-1.5 1.5-1.5h8.2c1 0 1.5.5 1.5 1.5v13.5h10.1c1 0 1.5.5 1.5 1.5v5.2c0 1-.5 1.5-1.5 1.5h-10.1Zm37.614 33.4h6.3c1 0 1.5.5 1.5 1.5v4.9c0 1-.5 1.5-1.5 1.5h-23.8c-1 0-1.5-.5-1.5-1.5v-4.9c0-1 .5-1.5 1.5-1.5h6.3v-33.4h-5.4c-1 0-1.5-.5-1.5-1.5v-5.2c0-1 .5-1.5 1.5-1.5h15.1c1 0 1.5.5 1.5 1.5v40.1Zm-12.1-50.5c-1.267-1.33-1.9-3.03-1.9-5.1s.633-3.77 1.9-5.1c1.333-1.4 3.067-2.1 5.2-2.1 2.2 0 3.933.7 5.2 2.1 1.333 1.33 2 3.03 2 5.1s-.667 3.77-2 5.1c-1.333 1.33-3.1 2-5.3 2-2.133 0-3.833-.67-5.1-2Zm24.395 34.4c0-5 .766-9.33 2.3-13 1.533-3.67 3.533-6.43 6-8.3 4.733-3.53 9.866-5.3 15.4-5.3 4.066 0 7.5.63 10.3 1.9 2.8 1.27 4.966 2.73 6.5 4.4 1.6 1.67 2.933 4.07 4 7.2 1.133 3.13 1.7 6.8 1.7 11 0 8.93-2.267 15.73-6.8 20.4-4.467 4.6-10.2 6.9-17.2 6.9s-12.467-2.1-16.4-6.3c-3.867-4.27-5.8-10.57-5.8-18.9Zm23 17c4 0 6.9-1.47 8.7-4.4 1.866-3 2.8-7.43 2.8-13.3 0-5.87-.934-10.27-2.8-13.2-1.8-3-4.767-4.5-8.9-4.5-7.667 0-11.5 5.4-11.5 16.2 0 12.8 3.9 19.2 11.7 19.2Zm29.222-35.7v-5.3c0-1 .5-1.5 1.5-1.5h13.6c.867 0 1.4.5 1.6 1.5l.9 5.8c3.734-5.6 9.067-8.4 16-8.4 10.334 0 15.5 5.67 15.5 17v25.7h5.8c1 0 1.5.5 1.5 1.5v4.9c0 1-.5 1.5-1.5 1.5h-21.8c-1 0-1.5-.5-1.5-1.5v-4.9c0-1 .5-1.5 1.5-1.5h4.8v-20.7c0-4.2-.533-7.27-1.6-9.2-1.066-1.93-3.266-2.9-6.6-2.9-3.333 0-6.1 1-8.3 3-2.2 2-3.3 4.27-3.3 6.8v23h6.2c1 0 1.5.5 1.5 1.5v4.9c0 1-.5 1.5-1.5 1.5h-22.7c-1 0-1.5-.5-1.5-1.5v-4.9c0-1 .5-1.5 1.5-1.5h5.3v-33.4h-5.4c-1 0-1.5-.47-1.5-1.4Z" fill="#000"/><path d="m83.535 382.464 42.929-42.928a5 5 0 0 1 7.072 0l42.928 42.928a5 5 0 0 1 0 7.072l-42.928 42.928a5 5 0 0 1-7.072 0l-42.928-42.928a5.001 5.001 0 0 1 0-7.072Z" fill="#F7081D"/><mask id="a" style="mask-type:alpha" maskUnits="userSpaceOnUse" x="130" y="338" width="48" height="96"><rect x="130" y="338.235" width="47.765" height="95.531" rx="5" fill="#D9D9D9"/></mask><g mask="url(#a)"><path d="m83.535 382.464 42.929-42.928a5 5 0 0 1 7.072 0l42.928 42.928a5 5 0 0 1 0 7.072l-42.928 42.928a5 5 0 0 1-7.072 0l-42.928-42.928a5.001 5.001 0 0 1 0-7.072Z" fill="#DC1021"/></g><path d="m133.243 300.3-7.2.3c-27.8 0-49.3-8.7-64.5-26.1-15-17.6-22.5-43.3-22.5-77.1 0-16.2 2-30.7 6-43.5 4.2-13 9.4-23.5 15.6-31.5 6.4-8 13.9-14.6 22.5-19.8 15.2-9.6 31.6-14.4 49.2-14.4 7.4 0 14.5.6 21.3 1.8 6.8 1.2 14.5 3.9 23.1 8.1 8.6 4.2 15.9 9.8 21.9 16.8 6.2 6.8 11.4 16.6 15.6 29.4 4.4 12.8 6.6 27.7 6.6 44.7 0 25.2-4.5 46.3-13.5 63.3-9 16.8-21.3 29.4-36.9 37.8 3.8 13.8 12.9 26.9 27.3 39.3 2.2 1.8 2.4 3.9.6 6.3l-6.9 8.4c-1 1.2-2.1 1.8-3.3 1.8-1 0-2.1-.3-3.3-.9-26.4-13.6-43.6-28.5-51.6-44.7Zm-3.6-27.9c35.8 0 53.7-26.3 53.7-78.9 0-52.6-18.2-78.9-54.6-78.9-12.8 0-23.4 3.5-31.8 10.5-8.2 7-13.9 15.7-17.1 26.1-3.2 10.2-4.8 22.1-4.8 35.7 0 57 18.2 85.5 54.6 85.5ZM418.8 722.4l-9.6.4c-37.067 0-65.733-11.6-86-34.8-20-23.467-30-57.733-30-102.8 0-21.6 2.667-40.933 8-58 5.6-17.333 12.533-31.333 20.8-42 8.533-10.667 18.533-19.467 30-26.4 20.267-12.8 42.133-19.2 65.6-19.2 9.867 0 19.333.8 28.4 2.4 9.067 1.6 19.333 5.2 30.8 10.8 11.467 5.6 21.2 13.067 29.2 22.4 8.267 9.067 15.2 22.133 20.8 39.2 5.867 17.067 8.8 36.933 8.8 59.6 0 33.6-6 61.733-18 84.4-12 22.4-28.4 39.2-49.2 50.4 5.067 18.4 17.2 35.867 36.4 52.4 2.933 2.4 3.2 5.2.8 8.4l-9.2 11.2c-1.333 1.6-2.8 2.4-4.4 2.4-1.333 0-2.8-.4-4.4-1.2-35.2-18.133-58.133-38-68.8-59.6Zm-4.8-37.2c47.733 0 71.6-35.067 71.6-105.2 0-70.133-24.267-105.2-72.8-105.2-17.067 0-31.2 4.667-42.4 14-10.933 9.333-18.533 20.933-22.8 34.8-4.267 13.6-6.4 29.467-6.4 47.6 0 76 24.267 114 72.8 114Z" fill="#000"/><path d="m344.492 373.908 28.663 51.219c30.873-9.103 50.551-7.778 87.639 0l28.662-51.218-38.218 27.926L439.377 351l-22.403 46.745L394.571 351l-11.861 50.834-38.218-27.926Z" fill="#F7081D"/></svg>

<svg width="822" height="1138" viewBox="0 0 822 1138" fill="none" xmlns="http://www.w3.org/2000/svg">
<rect y="16" width="822" height="1122" rx="50" fill="#F1F7EE"/>
<path d="M246.151 1104.1L243.751 1104.2C234.485 1104.2 227.318 1101.3 222.251 1095.5C217.251 1089.63 214.751 1081.07 214.751 1069.8C214.751 1064.4 215.418 1059.57 216.751 1055.3C218.151 1050.97 219.885 1047.47 221.951 1044.8C224.085 1042.13 226.585 1039.93 229.451 1038.2C234.518 1035 239.985 1033.4 245.851 1033.4C248.318 1033.4 250.685 1033.6 252.951 1034C255.218 1034.4 257.785 1035.3 260.651 1036.7C263.518 1038.1 265.951 1039.97 267.951 1042.3C270.018 1044.57 271.751 1047.83 273.151 1052.1C274.618 1056.37 275.351 1061.33 275.351 1067C275.351 1075.4 273.851 1082.43 270.851 1088.1C267.851 1093.7 263.751 1097.9 258.551 1100.7C259.818 1105.3 262.851 1109.67 267.651 1113.8C268.385 1114.4 268.451 1115.1 267.851 1115.9L265.551 1118.7C265.218 1119.1 264.851 1119.3 264.451 1119.3C264.118 1119.3 263.751 1119.2 263.351 1119C254.551 1114.47 248.818 1109.5 246.151 1104.1ZM244.951 1094.8C256.885 1094.8 262.851 1086.03 262.851 1068.5C262.851 1050.97 256.785 1042.2 244.651 1042.2C240.385 1042.2 236.851 1043.37 234.051 1045.7C231.318 1048.03 229.418 1050.93 228.351 1054.4C227.285 1057.8 226.751 1061.77 226.751 1066.3C226.751 1085.3 232.818 1094.8 244.951 1094.8ZM330.689 1095.1H335.089C336.089 1095.1 336.589 1095.6 336.589 1096.6V1101.5C336.589 1102.5 336.089 1103 335.089 1103H323.889C323.089 1103 322.589 1102.5 322.389 1101.5L321.489 1095.9C317.223 1101.43 311.623 1104.2 304.689 1104.2C293.889 1104.2 288.489 1098.53 288.489 1087.2V1061.7H283.189C282.189 1061.7 281.689 1061.2 281.689 1060.2V1055C281.689 1054 282.189 1053.5 283.189 1053.5H298.189C299.189 1053.5 299.689 1054 299.689 1055V1084.2C299.689 1088.2 300.189 1091.07 301.189 1092.8C302.256 1094.47 304.456 1095.3 307.789 1095.3C311.189 1095.3 313.989 1094.3 316.189 1092.3C318.389 1090.3 319.489 1088.03 319.489 1085.5V1061.7H313.189C312.189 1061.7 311.689 1061.2 311.689 1060.2V1055C311.689 1054 312.189 1053.5 313.189 1053.5H329.189C330.189 1053.5 330.689 1054 330.689 1055V1095.1ZM366.053 1104.2C358.119 1104.2 352.286 1101.9 348.553 1097.3C344.886 1092.63 343.053 1086.5 343.053 1078.9C343.053 1071.23 345.019 1064.9 348.953 1059.9C352.886 1054.9 358.553 1052.4 365.953 1052.4C369.619 1052.4 372.753 1053.1 375.353 1054.5C378.019 1055.83 380.053 1057.67 381.453 1060C384.119 1064.53 385.453 1069.77 385.453 1075.7C385.453 1078.5 385.319 1080.03 385.053 1080.3C384.786 1080.57 384.286 1080.7 383.553 1080.7H354.153C354.486 1085.5 355.653 1089.23 357.653 1091.9C359.719 1094.5 363.253 1095.8 368.253 1095.8C371.919 1095.8 375.686 1094.93 379.553 1093.2C380.486 1092.73 381.153 1093 381.553 1094L383.453 1098.6C383.786 1099.4 383.486 1100.07 382.553 1100.6C378.153 1103 372.653 1104.2 366.053 1104.2ZM354.153 1073.3H374.953C375.086 1064.97 371.819 1060.8 365.153 1060.8C361.219 1060.8 358.419 1062.07 356.753 1064.6C355.153 1067.07 354.286 1069.97 354.153 1073.3ZM393.102 1067.8C393.102 1063.4 394.802 1059.73 398.202 1056.8C401.602 1053.87 405.902 1052.4 411.102 1052.4C416.302 1052.4 420.802 1053 424.602 1054.2C425.535 1054.47 426.002 1055.07 426.002 1056V1066.6C426.002 1067.6 425.502 1068.1 424.502 1068.1H418.702C417.635 1068.1 417.202 1067.6 417.402 1066.6L417.902 1061.5C415.902 1060.43 413.702 1059.9 411.302 1059.9C405.969 1059.9 403.302 1061.77 403.302 1065.5C403.302 1067.43 404.169 1068.97 405.902 1070.1C407.635 1071.23 409.735 1072.17 412.202 1072.9C414.669 1073.57 417.135 1074.37 419.602 1075.3C422.135 1076.17 424.269 1077.7 426.002 1079.9C427.735 1082.03 428.602 1084.77 428.602 1088.1C428.602 1093.17 426.835 1097.13 423.302 1100C419.769 1102.8 414.802 1104.2 408.402 1104.2C403.935 1104.2 399.235 1103.53 394.302 1102.2C393.435 1101.93 393.002 1101.3 393.002 1100.3V1089.7C393.002 1088.7 393.502 1088.2 394.502 1088.2H400.302C401.302 1088.2 401.769 1088.7 401.702 1089.7L401.402 1094.9C403.202 1096.23 405.769 1096.9 409.102 1096.9C415.035 1096.9 418.002 1094.8 418.002 1090.6C418.002 1088.47 417.135 1086.8 415.402 1085.6C413.735 1084.33 411.669 1083.37 409.202 1082.7C406.802 1082.03 404.369 1081.3 401.902 1080.5C399.435 1079.63 397.335 1078.17 395.602 1076.1C393.935 1073.97 393.102 1071.2 393.102 1067.8ZM450.566 1061.7V1086.9C450.566 1090.03 450.966 1092.3 451.766 1093.7C452.566 1095.1 454.066 1095.8 456.266 1095.8C458.466 1095.8 460.599 1095.33 462.666 1094.4C463.399 1094.13 463.933 1094.4 464.266 1095.2L466.066 1099.8C466.133 1100 466.166 1100.3 466.166 1100.7C466.166 1101.03 465.833 1101.4 465.166 1101.8C461.966 1103.4 458.166 1104.2 453.766 1104.2C447.833 1104.2 443.933 1102.67 442.066 1099.6C440.733 1097.6 439.966 1095.67 439.766 1093.8C439.499 1091.27 439.366 1088.6 439.366 1085.8V1061.7H433.666C432.666 1061.7 432.166 1061.2 432.166 1060.2V1055C432.166 1054 432.666 1053.5 433.666 1053.5H439.366V1040C439.366 1039 439.866 1038.5 440.866 1038.5H449.066C450.066 1038.5 450.566 1039 450.566 1040V1053.5H460.666C461.666 1053.5 462.166 1054 462.166 1055V1060.2C462.166 1061.2 461.666 1061.7 460.666 1061.7H450.566ZM488.18 1095.1H494.48C495.48 1095.1 495.98 1095.6 495.98 1096.6V1101.5C495.98 1102.5 495.48 1103 494.48 1103H470.68C469.68 1103 469.18 1102.5 469.18 1101.5V1096.6C469.18 1095.6 469.68 1095.1 470.68 1095.1C470.68 1095.1 472.78 1095.1 476.98 1095.1V1061.7H471.58C470.58 1061.7 470.08 1061.2 470.08 1060.2V1055C470.08 1054 470.58 1053.5 471.58 1053.5H486.68C487.68 1053.5 488.18 1054 488.18 1055V1095.1ZM476.08 1044.6C474.813 1043.27 474.18 1041.57 474.18 1039.5C474.18 1037.43 474.813 1035.73 476.08 1034.4C477.413 1033 479.147 1032.3 481.28 1032.3C483.48 1032.3 485.213 1033 486.48 1034.4C487.813 1035.73 488.48 1037.43 488.48 1039.5C488.48 1041.57 487.813 1043.27 486.48 1044.6C485.147 1045.93 483.38 1046.6 481.18 1046.6C479.047 1046.6 477.347 1045.93 476.08 1044.6ZM500.475 1079C500.475 1074 501.241 1069.67 502.775 1066C504.308 1062.33 506.308 1059.57 508.775 1057.7C513.508 1054.17 518.641 1052.4 524.175 1052.4C528.241 1052.4 531.675 1053.03 534.475 1054.3C537.275 1055.57 539.441 1057.03 540.975 1058.7C542.575 1060.37 543.908 1062.77 544.975 1065.9C546.108 1069.03 546.675 1072.7 546.675 1076.9C546.675 1085.83 544.408 1092.63 539.875 1097.3C535.408 1101.9 529.675 1104.2 522.675 1104.2C515.675 1104.2 510.208 1102.1 506.275 1097.9C502.408 1093.63 500.475 1087.33 500.475 1079ZM523.475 1096C527.475 1096 530.375 1094.53 532.175 1091.6C534.041 1088.6 534.975 1084.17 534.975 1078.3C534.975 1072.43 534.041 1068.03 532.175 1065.1C530.375 1062.1 527.408 1060.6 523.275 1060.6C515.608 1060.6 511.775 1066 511.775 1076.8C511.775 1089.6 515.675 1096 523.475 1096ZM552.697 1060.3V1055C552.697 1054 553.197 1053.5 554.197 1053.5H567.797C568.664 1053.5 569.197 1054 569.397 1055L570.297 1060.8C574.031 1055.2 579.364 1052.4 586.297 1052.4C596.631 1052.4 601.797 1058.07 601.797 1069.4V1095.1H607.597C608.597 1095.1 609.097 1095.6 609.097 1096.6V1101.5C609.097 1102.5 608.597 1103 607.597 1103H585.797C584.797 1103 584.297 1102.5 584.297 1101.5V1096.6C584.297 1095.6 584.797 1095.1 585.797 1095.1H590.597V1074.4C590.597 1070.2 590.064 1067.13 588.997 1065.2C587.931 1063.27 585.731 1062.3 582.397 1062.3C579.064 1062.3 576.297 1063.3 574.097 1065.3C571.897 1067.3 570.797 1069.57 570.797 1072.1V1095.1H576.997C577.997 1095.1 578.497 1095.6 578.497 1096.6V1101.5C578.497 1102.5 577.997 1103 576.997 1103H554.297C553.297 1103 552.797 1102.5 552.797 1101.5V1096.6C552.797 1095.6 553.297 1095.1 554.297 1095.1H559.597V1061.7H554.197C553.197 1061.7 552.697 1061.23 552.697 1060.3Z" fill="black"/>
<path d="M83.5355 382.464L126.464 339.536C128.417 337.583 131.583 337.583 133.536 339.536L176.464 382.464C178.417 384.417 178.417 387.583 176.464 389.536L133.536 432.464C131.583 434.417 128.417 434.417 126.464 432.464L83.5355 389.536C81.5829 387.583 81.5829 384.417 83.5355 382.464Z" fill="#F7081D"/>
<mask id="mask0_1021_517" style="mask-type:alpha" maskUnits="userSpaceOnUse" x="130" y="338" width="48" height="96">
<rect x="130" y="338.235" width="47.7654" height="95.5307" rx="5" fill="#D9D9D9"/>
</mask>
<g mask="url(#mask0_1021_517)">
<path d="M83.5355 382.464L126.464 339.536C128.417 337.583 131.583 337.583 133.536 339.536L176.464 382.464C178.417 384.417 178.417 387.583 176.464 389.536L133.536 432.464C131.583 434.417 128.417 434.417 126.464 432.464L83.5355 389.536C81.5829 387.583 81.5829 384.417 83.5355 382.464Z" fill="#DC1021"/>
</g>
<path d="M133.243 300.3L126.043 300.6C98.2426 300.6 76.7426 291.9 61.5426 274.5C46.5426 256.9 39.0426 231.2 39.0426 197.4C39.0426 181.2 41.0426 166.7 45.0426 153.9C49.2426 140.9 54.4426 130.4 60.6426 122.4C67.0426 114.4 74.5426 107.8 83.1426 102.6C98.3426 93 114.743 88.2 132.343 88.2C139.743 88.2 146.843 88.8 153.643 90C160.443 91.2 168.143 93.9 176.743 98.1C185.343 102.3 192.643 107.9 198.643 114.9C204.843 121.7 210.043 131.5 214.243 144.3C218.643 157.1 220.843 172 220.843 189C220.843 214.2 216.343 235.3 207.343 252.3C198.343 269.1 186.043 281.7 170.443 290.1C174.243 303.9 183.343 317 197.743 329.4C199.943 331.2 200.143 333.3 198.343 335.7L191.443 344.1C190.443 345.3 189.343 345.9 188.143 345.9C187.143 345.9 186.043 345.6 184.843 345C158.443 331.4 141.243 316.5 133.243 300.3ZM129.643 272.4C165.443 272.4 183.343 246.1 183.343 193.5C183.343 140.9 165.143 114.6 128.743 114.6C115.943 114.6 105.343 118.1 96.9426 125.1C88.7426 132.1 83.0426 140.8 79.8426 151.2C76.6426 161.4 75.0426 173.3 75.0426 186.9C75.0426 243.9 93.2426 272.4 129.643 272.4Z" fill="black"/>
<path d="M418.8 722.4L409.2 722.8C372.133 722.8 343.467 711.2 323.2 688C303.2 664.533 293.2 630.267 293.2 585.2C293.2 563.6 295.867 544.267 301.2 527.2C306.8 509.867 313.733 495.867 322 485.2C330.533 474.533 340.533 465.733 352 458.8C372.267 446 394.133 439.6 417.6 439.6C427.467 439.6 436.933 440.4 446 442C455.067 443.6 465.333 447.2 476.8 452.8C488.267 458.4 498 465.867 506 475.2C514.267 484.267 521.2 497.333 526.8 514.4C532.667 531.467 535.6 551.333 535.6 574C535.6 607.6 529.6 635.733 517.6 658.4C505.6 680.8 489.2 697.6 468.4 708.8C473.467 727.2 485.6 744.667 504.8 761.2C507.733 763.6 508 766.4 505.6 769.6L496.4 780.8C495.067 782.4 493.6 783.2 492 783.2C490.667 783.2 489.2 782.8 487.6 782C452.4 763.867 429.467 744 418.8 722.4ZM414 685.2C461.733 685.2 485.6 650.133 485.6 580C485.6 509.867 461.333 474.8 412.8 474.8C395.733 474.8 381.6 479.467 370.4 488.8C359.467 498.133 351.867 509.733 347.6 523.6C343.333 537.2 341.2 553.067 341.2 571.2C341.2 647.2 365.467 685.2 414 685.2Z" fill="black"/>
<path d="M344.492 373.908L373.155 425.127C404.028 416.024 423.706 417.349 460.794 425.127L489.456 373.909L451.238 401.835L439.377 351L416.974 397.745L394.571 351L382.71 401.834L344.492 373.908Z" fill="#F7081D"/>
</svg>
